**kern
*clefF4
*k[b-e-a-]
*M4/4
=1-
1C 1AA-
=2
16D
8r
(8D
8C)
8D
(8C
8r
(16C#
8r
=3
2D
2r
=4
16C
8D
8r
(8E-
16D)
8C#
8BB-
8.AA-
16GG
=5
1GG
=6
8AA- 8FF
2GG
16GG
4GG
16AA-
=7
4BB-
8AA- 8FF 8DD
16BB-
16AA-
4r
4GG
=8
4FF
16FF
4GG
4GG 4EE- 4CC
16r
(16GG
16r
=9
16AA-
4GG
8r
2AA-
16r
=10
8AA-
8AA-
2BB-
16C
8r
16BB-
=11
*-